!!!!SEGMENT: pl-wnifc--3125-n--001-003_wieniawski-jozef--24-etudes-21me-etude.krn
!!!cenid: 18xx:3847
!!!COM: Wieniawski, Józef
!!!COM-rismID: pe137276
!!!CDT: 1837/05/23-1912/11/11
!!!CNT: Polish
!!!GTL: 24 Études
!!!OTL: 21me Etude
!!!OMV: 003
!!!PDT:
!!!AGN:
!!!SMS-siglum: PL-Wnifc
!!!SMS-shelfmark: 3125/n
!!!SMS-shelfwork: 001-003 G
!!!SMS-variant:
!!!SMS-altvar:
!!!NIFC-rismSourceID: 1001142383
!!!NIFC-rismChildID: 1001142387
!!!NIFC-islandoraID: nifc:212194
!!!URL-pdf-islandora: https://repozytorium.nifc.pl/islandora/object/nifc%3A212194/datastream/PDF/view
!!!URL-scan: https://polish.musicsources.pl/pl/lokalizacje/galeria/druki-muzyczne/16832 @EN{Scan on Polish Music Sources Website} @PL{Skany w portalu Dziedzictwo Muzyki Polskiej w otwartym dostępie}
!!!IIIF:
!!!ONB-nifc: UWAGA: w zbiorze znajdują się Etiudy od nr 19-24 (pliki 001-006).
!!!OMD: Presto scherzando e capriccioso.
!!!AIN: 1 piano
!!!key: B-
**kern	**fing	**kern	**fing	**dynam
*part1	*part1	*part1	*part1	*part1
*staff2	*staff2	*staff1	*staff1	*
*I"PIANO	*	*I"PIANO	*	*
*I'	*	*I'	*	*
*Ipiano	*	*Ipiano	*	*
*ICklav	*	*ICklav	*	*
*clefF4	*	*clefG2	*	*
*kcancel	*	*kcancel	*	*
*k[b-e-]	*	*k[b-e-]	*	*
*B-:	*	*B-:	*	*
*M3/8	*	*M3/8	*	*
=1	=1	=1	=1	=1
*ped	*	*	*	*
.	.	(>8qdd/	.	.
!	!	!LO:TX:b:i:t=con leggierezza	!	!LO:DY:rj
8BB-\L	.	8fff'\)	.	p
8d 8F\	.	8re	.	.
8fJ 8B-\	.	8r	.	.
=2	=2	=2	=2	=2
*	*	*8va	*	*
.	.	(>8qgg/	.	.
*Xped	*	*	*	*
8r	.	8bbb-'\)	.	.
*	*	*X8va	*	*
8e-L 8G\	.	8r	.	.
8gJ 8B-\	.	8r	.	.
=3	=3	=3	=3	=3
*ped	*	*	*	*
.	.	(>8qdd/	.	.
8BB-\L	.	8fff'\)	.	.
8d 8F\	.	8r	.	.
8fJ 8B-\	.	8r	.	.
=4	=4	=4	=4	=4
*^	*	*	*	*
*	*	*below	*	*below	*
8D/L	4.D\	5	16f/LL	1	.
*Xped	*	*	*	*	*
.	.	.	16g/	.	.
8F/	.	4	16a/	.	.
.	.	.	16b-/	.	.
8B-/J	.	2	16cc/	1	.
.	.	.	16dd/JJ	3	.
*v	*v	*	*	*	*
=5	=5	=5	=5	=5
*ped	*	*	*Xbelow	*
!	!	!LO:TX:t=P:problem=mixed beam	!	!
8C\L	5	8ee-L 8b-\	2 4	.
8F\	3	16r	.	.
.	.	16a'\K	1	.
8e-^\J	1	8e-</J	.	.
=6	=6	=6	=6	=6
8FF/L	.	16cc\LL	1	.
*Xped	*	*	*	*
.	.	16dd\	.	.
8E-/	.	16ee-\	.	.
.	.	16ff\	1	.
8A/J	.	16gg\	4	.
.	.	16aa\JJ	5	.
!!LO:LB:g=original
=7	=7	=7	=7	=7
*^	*	*	*	*
*ped	*	*	*	*	*
8BB-/L	4.BB-\	.	8ggL 8cc#X\	2 4	.
8En/	.	.	16r	.	.
.	.	.	16gg-X\K	4	.
8B-J 8F/	.	.	8ffJ 8dd\	1 3	.
*v	*v	*	*	*	*
=8	=8	=8	=8	=8
*Xped	*	*	*below	*
!	!	!LO:TX:t=P:problem=mixed beam	!	!
8ryy	.	16A</LL	2	.
.	.	N[16B-</	1	.
*	*	*	*Xbelow	*
4B-\N]	.	16d\	1	.
.	.	16f\	.	.
.	.	16b-\	4	.
.	.	16dd\JJ	1	.
=9	=9	=9	=9	=9
*ped	*	*	*	*
8r	.	8fff\	5	.
8dL 8F\	.	8r	.	.
8fJ 8B-\	.	8r	.	.
=10	=10	=10	=10	=10
*Xped	*	*8va	*	*
.	.	8qggn/	.	.
8r	.	8bbb-\	.	.
*	*	*X8va	*	*
8c#XL 8En\	.	8r	.	.
8enJ 8B-\	.	8r	.	.
=11	=11	=11	=11	=11
*ped	*	*	*	*
.	.	8qdd/	.	.
8BB-\L	.	4.fff\	.	.
8d 8F\	.	.	.	.
8fJ 8B-\	.	.	.	.
=12	=12	=12	=12	=12
8r	.	16eeen\LL	4	.
*Xped	*	*	*	*
.	.	16ddd\	.	.
8dL 8G\	.	16bb-\	.	.
.	.	16gg\	1	.
8enJ 8B-\	.	16een\	4	.
.	.	16dd\JJ	.	.
=13	=13	=13	=13	=13
*^	*	*	*	*
*ped	*	*	*	*	*
8BBn/L	4.BB\	.	8ffL 8a\	1 5	.
8F/	.	.	16r	.	.
.	.	.	16cc#XK 16en\	1 4	.
8A/J	.	.	8ddJ 8f\	1 5	.
*v	*v	*	*	*	*
!!LO:LB:g=original
=14	=14	=14	=14	=14
8Cn\L	.	16aaa^\LL	5	f
.	.	16fff\	.	.
*Xped	*	*	*	*
8A\	.	16ddd\	.	.
.	.	16ccc\	.	.
8f\J	.	16aa\	1	.
.	.	16ff\JJ	4	.
=15	=15	=15	=15	=15
*^	*	*	*	*
8B-/	4.B-\	2	16een\LL	3	.
.	.	.	16dd\	.	.
4c/	.	1	16cc\	1	.
.	.	.	16a\	2	.
!	!	!	!	!	!LO:HP:t=dim.
.	.	.	16b-\	3	>
.	.	.	16en\JJ	1	.
=16	=16	=16	=16	=16	=16
*	*	*^	*	*	*
*	*	*below	*below	*	*	*
8r	4.A 4.F\	.	1 3	16r	.	.
.	.	.	.	16f\LL	.	.
4c#X/	.	1	.	16a\	.	.
.	.	.	.	16ff\J	.	.
.	.	.	.	8f\J	.	.
*	*	*v	*v	*	*	*
*v	*v	*	*	*	*
=17	=17	=17	=17	=17
*ped	*	*	*	*
.	.	8qdd/	.	.
8BBB-\L	.	8fff\	.	.
8d 8F\	.	8r	.	.
8fJ 8B-\	.	8r	.	.
=18	=18	=18	=18	=18
*Xped	*	*8va	*	*
.	.	8qgg/	.	.
8r	.	8bbb-\	.	.
*	*	*X8va	*	*
8e-XL 8G\	.	8r	.	.
8gJ 8B-\	.	8r	.	.
=19	=19	=19	=19	=19
*ped	*	*	*	*
.	.	8qdd/	.	.
8BB-\L	.	8fff\	.	.
8d 8F\	.	8r	.	.
8fJ 8B-\	.	8r	.	.
=20	=20	=20	=20	=20
*^	*	*	*	*
8D/L	4.D\	.	16f/LL	.	.
*Xped	*	*	*	*	*
.	.	.	16g/	.	.
8F/	.	.	16a/	.	.
.	.	.	16b-/	.	.
8B-/J	.	.	16cc/	.	.
.	.	.	16dd/JJ	.	.
*v	*v	*	*	*	*
!!LO:LB:g=original
=21	=21	=21	=21	=21
*ped	*	*	*	*
!	!	!LO:TX:t=P:problem=mixed beam	!	!
8C\L	.	8ee-L 8b-\	.	.
8F\	.	16r	.	.
.	.	16a'\K	.	.
8e-^\J	.	8e-</J	.	.
=22	=22	=22	=22	=22
8FF/L	.	16cc\LL	1	.
*Xped	*	*	*	*
.	.	16dd\	.	.
8E-/	.	16ee-\	.	.
.	.	16ff\	1	.
8A/J	.	16gg\	.	.
.	.	16aa\JJ	.	.
=23	=23	=23	=23	=23
*^	*	*	*	*
*ped	*	*	*	*	*
8BB-/L	4.BB-\	.	8cccnL 8cc#X\	.	.
8En/	.	.	16r	.	.
.	.	.	16bb-\K	.	.
8B-J 8F/	.	.	8ffJ 8dd\	.	.
*v	*v	*	*	*	*
=24	=24	=24	=24	=24
*	*	*	*below	*
!	!	!LO:TX:t=P:problem=mixed beam	!	!
4.ryy	.	16A</LL	2	.
*Xped	*	*	*	*
.	.	16B-</	1	.
*	*	*	*Xbelow	*
.	.	16d\	1	.
.	.	16f\	.	.
.	.	16b-\	4	.
.	.	16dd\JJ	1	.
=25	=25	=25	=25	=25
*ped	*	*	*	*
!	!	!LO:TX:b:i:t=poco rit.:dur=6e:ext=ud:problem=text with extension lines	!	!
8r	.	8fff\	.	.
8dL 8F\	.	8r	.	.
8fJ 8B-\	.	8r	.	.
=26	=26	=26	=26	=26
*Xped	*	*8va	*	*
.	.	8qgg-X/	.	.
8r	.	8bbb-\	.	.
*	*	*X8va	*	*
8e-XL 8G-X\	.	8r	.	.
8g-XJ 8B-\	.	8r	.	.
=27	=27	=27	=27	=27
*ped	*	*	*	*
.	.	8qdd/	.	.
8BB-\L	.	4.fff\	.	.
8d 8F\	.	.	.	.
8fJ 8B-\	.	.	.	.
!!LO:LB:g=original
=28	=28	=28	=28	=28
*Xped	*	*	*	*
8r	.	16eee-\LL	4	.
.	.	16ddd\	.	.
8dL 8F#X\	.	16bb-\	.	.
.	.	16ff#X\	1	.
8f#XJ 8B-\	.	16ee-\	4	.
.	.	16dd\JJ	.	.
=29	=29	=29	=29	=29
*ped	*	*	*below	*
8BB-\L	.	(16a/LL	1	.
.	.	16b-/JJ)	2	.
8D\	.	16r	.	.
.	.	16f#X/	1	.
8dJ 8Gn\	.	8gn/	2	.
=30	=30	=30	=30	=30
*^	*	*	*	*
*Xped	*	*	*	*	*
8C/	4.C\	.	16dd/LL	5	.
.	.	.	16fn/	.	.
4B-/	.	.	16d/	1	.
.	.	.	16d#/	2	.
.	.	.	16en/	1	.
.	.	.	16a/JJ	4	.
*v	*v	*	*	*	*
=31	=31	=31	=31	=31
*ped	*	*	*Xbelow	*
8FF/	.	16g\LL	3	.
.	.	16f\	1	.
4A\	.	16a\	.	.
.	.	16cc\J	.	.
.	.	8ff\J	.	.
=32	=32	=32	=32	=32
*Xped	*	*	*	*
!LO:TX:t=P:problem=mixed beam	!	!	!	!
8C/L	.	4.ryy	.	.
8F/	.	.	.	.
*	*Xbelow	*	*	*
8F#X>\J	2	.	.	.
=33	=33	=33	=33	=33
*ped	*	*	*	*
[4C [4FFn/	.	[4e-X [4B- [4G/	.	f
16C]LL 16FF/]	.	16e-]LL 16B-] 16G/]	.	.
*clefG2	*	*	*	*
16gJJ 16e- 16c/	.	16ee-JJ 16b-/	.	.
=34	=34	=34	=34	=34
[4.g [4.e- [4.c/	.	4.ee- 4.b-\	.	sf
!!LO:PB:g=original
=35	=35	=35	=35	=35
*	*^	*	*	*
*	*Xbelow	*	*	*	*
.	.	.	8qcc/	.	p
4g] 4e-] 4c/]	.	.	8eee-\	.	.
.	.	.	8r	.	.
8cc 8b- 8g/	2	5	8r	.	.
=36	=36	=36	=36	=36	=36
*	*	*	*8va	*	*
.	.	.	8qgg/	.	.
4ee- 4cc 4b-\	1	3	8bbb-\	.	.
*	*	*	*X8va	*	*
.	.	.	8r	.	.
8cc 8b- 8g/	1	3	8r	.	.
=37	=37	=37	=37	=37	=37
.	.	.	8qcc/	.	.
4b- 4g 4e-/	2	5	8eee-\	.	.
.	.	.	8r	.	.
8cc 8b- 8g/	1	.	8r	.	.
*Xped	*	*	*	*	*
=38	=38	=38	=38	=38	=38
*^	*	*	*	*	*
4g/	4.b- [4.e-\	3 2	5	16bb-\LL	2	.
.	.	.	.	16bbn\	1	.
.	.	.	.	16ccc\	2	.
.	.	.	.	16ccc#X\	3	.
8g-X/	.	.	.	16ddd\	.	.
.	.	.	.	16eee-\JJ	5	.
*	*	*v	*v	*	*	*
*v	*v	*	*	*	*
=39	=39	=39	=39	=39
*	*	*^	*	*
4.a 4.f 4.e-/]	4 1	(4ddd/	8ddd\L	4	.
.	.	.	8ee-\	1	.
.	.	8ccc/)	8ccc\J	3	.
*	*	*v	*v	*	*
=40	=40	=40	=40	=40
*	*	*	*below	*
!	!	!LO:TX:t=P:problem=mixed beam	!	!
4.ryy	.	16e-</LL	5	.
*	*	*	*Xbelow	*
.	.	16Bn\	1	.
.	.	16c\	.	.
.	.	16d\J	.	.
.	.	[8e-\J	4	.
*clefF4	*	*	*	*
=41	=41	=41	=41	=41
*ped	*	*	*below	*
[<4G-X [<4C [4FF\	.	4e-_ [>4B-X<^>/	1	f
16G-]LL 16C] 16FF\]	.	16e-]LL 16B-</]	.	.
*clefG2	*	*	*	*
16g-XJJ 16e- 16c\	.	16ee-JJ 16b-/	.	.
!!LO:LB:g=original
=42	=42	=42	=42	=42
[4.g-X [4.e- [4.c/	.	4.ee- 4.b-\	.	sf
=43	=43	=43	=43	=43
.	.	8qcc/	.	p
4g-X] 4e-] 4c/]	.	8eee-\	.	.
.	.	8r	.	.
*	*below	*	*	*
8cc 8b- 8g-/	5	8r	.	.
=44	=44	=44	=44	=44
!!!OMD: L'istesso tempo.
*M2/8	*	*M2/8	*	*
*	*	*8va	*	*
.	.	8qgg-X/	.	.
8ee-L 8cc 8b-\	.	8bbb-'\L	.	.
.	.	8qbb-/	.	.
[8gg-XJ [<8ee- [8cc\	.	(8dddd^\J	.	.
=45	=45	=45	=45	=45
8gg-X]L 8ee-] 8cc\]	.	8cccc'\L)	.	.
*Xped	*	*	*	*
.	.	8qgg-X/	.	.
8ee-J 8cc 8b-\	.	8bbb-\J	.	.
*	*	*X8va	*	*
=46	=46	=46	=46	=46
*	*^	*	*	*
.	.	.	8qee-/	.	.
8ccL 8b- 8g-X/	.	.	8ggg-X\L	.	.
.	.	.	8qcc/	.	.
8b-J 8g- [8e-/	3 2	5	8eee-\J	.	.
*	*v	*v	*	*	*
=47	=47	=47	=47	=47
*	*	*^	*	*
*	*Xbelow	*	*	*Xbelow	*
4a 4f 4e-/]	4 1	(16ee-/LL	4ee-\	1	.
.	.	16bbn/	.	.	.
.	.	16ddd/	.	.	.
.	.	16ccc/JJ)	.	.	.
*	*	*v	*v	*	*
=48	=48	=48	=48	=48
*M3/8	*	*M3/8	*below	*
!	!	!LO:TX:t=P:problem=mixed beam	!	!
4.ryy	.	16e-<: 16A<:/LL	3 5	.
*	*	*	*Xbelow	*
.	.	16Bn\	1	.
.	.	16c\	.	.
.	.	16d\J	.	.
.	.	8e-\J	4	.
*clefF4	*	*	*	*
=49	=49	=49	=49	=49
*ped	*	*	*	*
4.AA-X:: 4.EE-:: 4.AAA-X::\	.	4.g-X:: 4.c:: 4.E-<::/	.	.
!!LO:LB:g=original
=50	=50	=50	=50	=50
.	.	8qcc/	.	.
4.a-> 4.g-X> 4.e->\	.	8eee-/	.	.
.	.	8rccc	.	.
.	.	8rccc	.	.
=51	=51	=51	=51	=51
4.C 4.FF\	.	4.f 4.e- 4.An/	.	.
*Xped	*	*	*	*
=52	=52	=52	=52	=52
*M2/8	*	*M2/8	*	*
.	.	8qee-/	.	.
16an>:LL 16f>: 16e->: 16c>:\	.	8fff/	.	.
16d>\J	.	.	.	.
8e->\J	.	8rccc	.	.
=53	=53	=53	=53	=53
*ped	*	*	*	*
4AA-X:: 4EE-:: 4AAA-X::\	.	4g-X:: 4c:: 4E-<::/	.	.
=54	=54	=54	=54	=54
.	.	8qee-/	.	.
4cc>: 4a-X>: 4g-X>: 4e->: 4c>:\	.	8ggg-X/	.	.
*Xped	*	*	*	*
.	.	8rccc	.	.
=55	=55	=55	=55	=55
*ped	*	*	*	*
4FF:: 4CC:: 4FFF::\	.	4cc:: 4e-:: 4An<::/	.	.
=56	=56	=56	=56	=56
.	.	8qee-/	.	.
*	*below	*	*	*
16an>:LL 16e->: 16c>: 16A:\	1 3 4 5	[>4gggn^>/	.	.
16f>\J	.	.	.	.
8e->\J	.	.	.	.
=57	=57	=57	=57	=57
*	*Xbelow	*	*	*
4F\	5	8ggg\L]	.	.
.	.	8fff\J	.	.
=58	=58	=58	=58	=58
*clefG2	*	*	*	*
!	!	!LO:TX:t=P:problem=mixed beam	!	!
4ryy	.	8eee-\L	.	.
*	*below	*	*	*
.	3	8aa</J	.	.
!!LO:LB:g=original
=59||	=59||	=59||	=59||	=59||
*M3/8	*	*M3/8	*	*
*	*	*8va	*	*
!	!	!LO:TX:t=P:problem=mixed beam	!	!
!	!	!LO:TX:a:i:t=Accelerando	!	!
!	!	!LO:TX:b:i:t=Brillante	!	!
4.ryy	.	16dddd\LL	5	p
.	.	16cccc\	.	.
.	.	16bbb-\	.	.
.	.	16ggg\	2	.
*	*	*X8va	*	*
.	3	16ddd</	.	.
.	2	16eee-</JJ	.	.
=60	=60	=60	=60	=60
*	*	*8va	*	*
!	!	!LO:TX:t=P:problem=mixed beam	!	!
4.ryy	.	16bbb-\LL	4	.
.	.	16aaa\	.	.
.	.	16ggg\	.	.
.	.	16fff\	1	.
*	*	*X8va	*	*
.	2	16eee-</	.	.
.	4	16aa</JJ	.	.
=61	=61	=61	=61	=61
!	!	!LO:TX:t=P:problem=mixed beam	!	!
4.ryy	.	16ggg^\LL	5	.
.	.	16fff\	.	.
.	.	16eee-\	3	.
.	.	16aa\	1	.
.	1	16ff</	.	.
.	5	16f</JJ	.	.
=62	=62	=62	=62	=62
!	!	!LO:TX:t=P:problem=mixed beam	!	!
4.ryy	.	16ddd\LL	.	.
.	.	16ccc\	.	.
*Xped	*	*	*	*
.	.	16bb-\	.	.
.	.	16gg\	.	.
.	.	16dd</	.	.
.	.	16ee-</JJ	.	.
=63	=63	=63	=63	=63
!	!	!LO:TX:t=P:problem=mixed beam	!	!
4.ryy	.	16bb-\LL	4	.
.	.	16aa\	.	.
.	.	16gg\	.	.
.	.	16ff\	.	.
.	.	16ee-</	.	.
.	.	16a</JJ	.	.
=64	=64	=64	=64	=64
*clefF4	*	*	*	*
!	!	!LO:TX:t=P:problem=mixed beam	!	!
4.ryy	.	16gg\LL	4	.
.	.	16ff\	.	.
.	.	16ee-\	.	.
.	.	16a\	.	.
.	.	16f</	.	.
.	.	16F</JJ	.	.
=65	=65	=65	=65	=65
!	!	!LO:TX:t=P:problem=mixed beam	!	!
4.ryy	.	16dd^\LL	.	.
.	.	16cc\	.	.
.	.	16b-\	.	.
.	.	16g\	.	.
.	.	16d</	.	.
.	.	16e-</JJ	.	.
!!LO:LB:g=original
=66	=66	=66	=66	=66
!	!	!LO:TX:t=P:problem=mixed beam	!	!
4.ryy	.	16b-\LL	.	.
.	.	16a\	.	.
.	.	16g\	.	.
.	.	16f\	.	.
.	.	16e-</	.	.
.	.	16A</JJ	.	.
=67	=67	=67	=67	=67
!	!	!LO:TX:t=P:problem=mixed beam	!	!
4.ryy	.	16g\LL	.	.
.	.	16f\	.	.
.	.	16e-\	.	.
.	.	16A\	.	.
.	.	16F</	.	.
.	.	16FF</JJ	.	.
=68	=68	=68	=68	=68
!	!	!LO:TX:t=P:problem=mixed beam	!	!
4.ryy	.	16d\LL	.	.
.	.	16c\	.	.
.	.	16B-\	.	.
.	.	16G\	.	.
.	.	16D</	.	.
.	.	16E-</JJ	.	.
*	*	*clefF4	*	*
=69	=69	=69	=69	=69
!	!	!LO:TX:t=P:problem=mixed beam	!	!
4.ryy	.	16B-^\LL	.	.
.	.	16A\	.	.
.	.	16G\	.	.
.	.	16F\	.	.
.	.	16E-</	.	.
.	.	16AA</JJ	.	.
=70	=70	=70	=70	=70
!	!	!LO:TX:t=P:problem=mixed beam	!	!
4.ryy	.	16G\LL	.	.
.	.	16F\	.	.
!	!	!	!	!LO:HP:a
.	.	16E-\	.	<
.	.	16AA\	.	.
.	.	16FF</	.	.
.	.	16FFF</JJ	.	.
=71	=71	=71	=71	=71
!	!	!LO:TX:t=P:problem=mixed beam	!	!
4.ryy	.	16G\LL	.	.
.	.	16F\	.	.
.	.	16E-\	.	.
.	.	16BB-\	.	.
.	.	16FF</	.	.
.	.	16GGG</JJ	.	.
=72	=72	=72	=72	=72
!	!	!LO:TX:t=P:problem=mixed beam	!	!
4.ryy	.	16G\LL	.	.
.	.	16F\	.	.
.	.	16E-\	.	.
.	.	16BBn\	.	.
.	.	16FF</	.	.
.	.	16GGG#X</JJ	.	[[
!!LO:PB:g=original
=73	=73	=73	=73	=73
*M2/8	*	*M2/8	*	*
*	*	*^	*	*
4FF 4AAA/	.	8Gn^/L	4E- 4C\	.	.
.	.	[8F/J	.	.	.
*	*	*v	*v	*	*
=74	=74	=74	=74	=74
*ped	*Xbelow	*	*	*
[4AA-X [4DD-X/	5 2	4F_ [4D-X [4C-X\	.	.
=75	=75	=75	=75	=75
*	*^	*	*	*
!	!	!	!LO:TX:a:i:t=poco accel.	!	!
8AA-X]L 8DD-X\]	.	.	8F]L 8D-X] 8C-X/]	.	.
*	*	*	*clefG2	*	*
8d-XJ 8c-X 8A-X\	2	3 5	8ccnJ 8cc-X 8f/	1 2 3	.
=76	=76	=76	=76	=76	=76
8a-XL 8d-X 8c-X\	1	3	8dd-XL 8cc-X 8f\	1 2 3	.
8d-J 8c- 8A-X\	.	.	8ee-J 8cc- 8f\	4	.
*	*v	*v	*	*	*
=77	=77	=77	=77	=77
8a-XL 8d-X 8c-X\	.	8ffL 8cc-X 8f\	5	.
8d-J 8c- 8A-X\	.	8gg-XJ 8cc- 8f\	5	.
=78	=78	=78	=78	=78
*	*	*^	*	*
4a-X 4d-X 4c-X\	.	8ggn/L	4cc-X 4f\	5	.
.	.	8aa-X/J	.	5	.
*	*	*v	*v	*	*
=79	=79	=79	=79	=79
*	*^	*	*	*
8r	.	.	8r	.	.
*clefG2	*	*	*	*	*
8dd-X 8cc-X 8a-X\	2	5	8cccn 8ccc-X 8ff\	1 2 3	.
*	*v	*v	*	*	*
=80	=80	=80	=80	=80
*	*below	*	*	*
8aa-XL 8dd-X 8cc-X\	3	8ddd-XL 8ccc-X 8ff\	3	.
8dd-J 8cc- 8a-X\	.	8eee-J 8ccc- 8ff\	4	.
=81	=81	=81	=81	=81
8aa-XL 8dd-X 8cc-X\	.	8fff 8ccc-X 8ff\	5	.
*clefF4	*	*	*	*
*Xped	*Xbelow	*	*	*
8en~'\J	4	8r	.	.
!!LO:LB:g=original
=82	=82	=82	=82	=82
8f~'\L	3	4r	.	.
8g~'\J	2	.	.	.
=83	=83	=83	=83	=83
[4a-X^\	1	4r	.	.
=84	=84	=84	=84	=84
4a-\]	.	4r	.	.
=85	=85	=85	=85	=85
*^	*	*	*	*
*ped	*	*	*	*	*
8r	[4A-X^\	.	8r	.	.
!	!	!	!LO:TX:a:i:t=rit.:dur=7e:ext=ud:problem:text with extension lines	!	!
[8d-X/	.	.	8an [8f/	.	.
=86	=86	=86	=86	=86	=86
*	*	*	*^	*	*
*Xped	*	*	*	*	*	*
4d-/]	8A-\L]	.	8b-/L	4f\]	.	.
.	8G\J	.	8bn/J	.	.	.
*	*	*	*v	*v	*	*
=87	=87	=87	=87	=87	=87
*ped	*	*	*	*	*
!	!	!	!LO:TX:b:Bi:t=dim._:problem:dynamics with extension lines	!	!LO:HP:t=dim.
8r	4C\	.	8r	.	>
8G-X/	.	.	[8cc 8b-X 8en/	.	.
=88	=88	=88	=88	=88	=88
*	*	*	*^	*	*
*Xped	*	*	*	*	*	*
4F/	8F\L	.	8cc/L]	4a 4e-\	.	.
.	8FF\J	.	8cc#X;/J	.	.	]]
*v	*v	*	*	*	*	*
*	*	*v	*v	*	*
=89	=89	=89	=89	=89
!!!OMD: Tempo I.
*M3/8	*	*M3/8	*	*
*ped	*	*	*	*
.	.	8qddn/	.	.
8BBB-\L	.	8fff\	.	.
8d 8F\	.	8r	.	.
8fJ 8B-\	.	8r	.	.
=90	=90	=90	=90	=90
*Xped	*	*8va	*	*
.	.	8qgg/	.	.
8r	.	8bbb-\	.	.
*	*	*X8va	*	*
8e-XL 8Gn\	.	8r	.	.
8gJ 8B-\	.	8r	.	.
!!LO:LB:g=original
=91	=91	=91	=91	=91
*ped	*	*	*	*
.	.	8qdd/	.	.
8BB-\L	.	8fff\	.	.
8d 8F\	.	8r	.	.
8fJ 8B-\	.	8r	.	.
=92	=92	=92	=92	=92
*^	*	*	*	*
*	*	*	*	*below	*
8D/L	4.D\	.	16f/LL	1	.
*Xped	*	*	*	*	*
.	.	.	16g/	.	.
8F/	.	.	16a/	.	.
.	.	.	16b-/	4	.
8B-/J	.	.	16cc/	1	.
.	.	.	16dd/JJ	3	.
*v	*v	*	*	*	*
=93	=93	=93	=93	=93
*	*	*	*^	*
*ped	*	*	*	*	*
!	!	!LO:TX:t=P:problem=mixed beam	!	!	!
8C\L	.	8ggL 8ee- 8b-'\	4 5	2	.
8F\	.	16r	.	.	.
.	.	16a'\K	1	.	.
8e-^\J	.	8e-</J	.	.	.
*	*	*	*v	*v	*
=94	=94	=94	=94	=94
*	*	*	*Xbelow	*
8FF/L	.	16cc\LL	1	.
.	.	16dd\	.	.
*Xped	*	*	*	*
8E-/	.	16ee-\	.	.
.	.	16ff\	1	.
8A/J	.	16gg\	.	.
.	.	16aa\JJ	.	.
=95	=95	=95	=95	=95
*^	*	*	*	*
*ped	*	*	*	*	*
8BB-/L	4.BB-\	.	8cccnL 8cc#X\	.	.
8En/	.	.	16r	.	.
.	.	.	16bb-\K	.	.
8B-J 8F/	.	.	8ffJ 8dd\	.	.
*v	*v	*	*	*	*
=96	=96	=96	=96	=96
*clefG2	*	*8va	*	*
!	!	!LO:TX:t=P:problem=mixed beam	!	!
4.ryy	.	16gggg^\LL	.	ff
.	.	16ffff\	.	.
.	.	16fff\	.	.
*	*	*X8va	*	*
.	.	16ff</J	.	.
.	.	8f</J	.	.
=97	=97	=97	=97	=97
.	.	8qdd/	.	.
8r	.	8fff\	.	p
8a-XL 8d/	.	8r	.	.
[8B-/J	.	8r	.	.
=98	=98	=98	=98	=98
*Xped	*	*	*	*
.	.	8qee-X/	.	.
8B-/L]	.	8ggg\	.	.
8a-X 8c/	.	8r	.	.
[8B-/J	.	8r	.	.
!!LO:LB:g=original
=99	=99	=99	=99	=99
*	*	*8va	*	*
.	.	8qgg/	.	.
8B-/L]	.	8bbb-\	.	.
*	*	*X8va	*	*
8a-X 8e-/	.	8r	.	.
[8B-/J	.	8r	.	.
=100	=100	=100	=100	=100
.	.	8qee-/	.	.
8B-/L]	.	8ggg\	.	.
8a-X 8c/	.	8r	.	.
8B-/J	.	8r	.	.
*clefF4	*	*	*	*
=101	=101	=101	=101	=101
*M2/8	*	*M2/8	*	*
*ped	*	*	*	*
8BB-\L	.	8r	.	.
.	.	8qdd/	.	.
8f:J 8d: [>8B-: [8A-X:\	.	8fff\	.	.
=102	=102	=102	=102	=102
.	.	8qee-/	.	.
8gL 8e- 8B-] 8A-X\]	.	8ggg\L	.	.
*clefG2	*	*8va	*	*
.	.	8qgg/	.	.
8b-J 8g\	.	8bbb-\J	.	.
*clefF4	*	*X8va	*	*
=103	=103	=103	=103	=103
.	.	8qee-/	.	.
8gL 8e-\	.	8ggg\L	.	.
.	.	8qdd/	.	.
8f:J 8d: [>8B-: [8A-X:\	2 1	8fff\J	.	.
*Xped	*	*	*	*
=104	=104	=104	=104	=104
.	.	8qcc/	.	.
8e-L 8c 8B-] 8A-X\]	3 2	8eee-\L	.	.
.	2 1	8qdd/	.	.
8fJ 8d 8B- 8A-\	.	8fff\J	.	.
=105	=105	=105	=105	=105
*ped	*	*	*	*
8EE-\L	.	8r	.	.
.	.	8qee-/	.	.
8gJ 8e- 8B- 8G\	.	8ggg\	.	.
*clefG2	*	*	*	*
=106	=106	=106	=106	=106
*	*	*8va	*	*
.	.	8qgg/	.	.
4b- 4g^>/	.	[4bbb-^\	.	.
*clefF4	*	*	*	*
=107	=107	=107	=107	=107
8BBB-\L	.	8bbb-\L]	.	.
*	*	*X8va	*	*
.	.	8qcc/	.	.
8e-:J 8c: [>8B-: [8A-X:\	.	8eee-\J	.	.
*Xped	*	*	*	*
!!LO:LB:g=original
=108	=108	=108	=108	=108
.	.	8qcc#X/	.	.
8enL 8c# 8B-] 8A-X\]	3 1	8eeen\L	.	.
.	.	8qdd/	.	.
8fJ 8d 8B- 8A-\	2 1	8fff\J	.	.
=109	=109	=109	=109	=109
*ped	*	*	*	*
8EE-X\L	.	8r	.	.
.	.	8qee-X/	.	.
8g:J 8e-: 8B-: 8G:\	.	8ggg\	.	.
*clefG2	*	*	*	*
=110	=110	=110	=110	=110
*	*	*8va	*	*
.	.	8qbb-/	.	.
4dd 4b-^\	.	[4dddd^\	.	.
*clefF4	*	*	*	*
=111	=111	=111	=111	=111
8CCn/L	.	8dddd\L]	.	.
*clefG2	*	*	*	*
.	.	8qaan/	.	.
8cc:J 8an: 8g: [8e-:/	.	8cccc\J	.	.
=112	=112	=112	=112	=112
.	.	8qgg/	.	.
8b-L 8g 8e-\]	.	8bbb-\L	.	.
*clefF4	*	*	*	*
*	*	*X8va	*	*
.	.	8qdd/	.	.
8f#XJ 8d\	.	8fff#X\J	.	.
=113	=113	=113	=113	=113
.	.	8qffn/	.	.
*Xped	*	*	*	*
8aL 8fn\	.	8aaa\L	.	.
.	.	8qee-/	.	.
8gJ 8e-\	.	8ggg\J	.	.
=114	=114	=114	=114	=114
.	.	8qbn/	.	.
8dL 8Bn\	.	8ddd\L	.	.
.	.	8qdd/	.	.
8fJ 8d\	.	8fff\J	.	.
=115	=115	=115	=115	=115
.	.	8qcc/	.	.
!	!	!LO:TX:a:i:t=rit.:dur=4e:ext=ud:problem:text with extension lines	!	!
8e-L 8c\	.	8eee-\L	.	.
.	.	8qf#X/	.	.
8AJ 8F#X\	.	8aa\J	.	.
=116	=116	=116	=116	=116
.	.	8qa/	.	.
8.cL 8.A\	.	8.ccc\L	.	.
.	.	8qg/	.	.
16B-XJk 16G\	.	16bb-X\Jk	.	.
!!LO:PB:g=original
=117	=117	=117	=117	=117
*M3/8	*	*M3/8	*	*
*ped	*	*	*	*
4.C/	.	4.r	.	.
=118	=118	=118	=118	=118
!	!	!	!	!LO:DY:b=2
4.g>:: 4.en>:: 4.d>:: 4.B-:: 4.G::\	.	8ddd:: 8b-::/	.	sf
.	.	8ree	.	.
.	.	8ree	.	.
*Xped	*	*	*	*
=119	=119	=119	=119	=119
*ped	*	*	*	*
[4.FFn^>/	.	4.r	.	.
=120	=120	=120	=120	=120
4.D 4.FF\_	.	16F</LL	1	.
.	.	16G</	.	.
.	.	16A</	.	.
.	.	16B-</	.	.
.	.	16c/	1	.
.	.	16d/JJ	3	.
=121	=121	=121	=121	=121
*Xped	*	*	*	*
4.C 4.FF\]	3	8fL 8B-</	2 5	.
.	.	16r	.	.
.	.	16e-X/K	.	.
.	.	8G</J	.	.
=122	=122	=122	=122	=122
*	*below	*	*	*
4.A 4.E-\	1 2	16c/LL	1	.
.	.	16d/	.	.
.	.	16e-/	.	.
.	.	16f/	1	.
.	.	16g/	.	.
.	.	16a/JJ	.	.
=123	=123	=123	=123	=123
*^	*	*	*	*
*ped	*	*	*	*	*
4.BB-\	4E/	.	8ccnL 8c#X/	.	.
.	.	.	16r	.	.
.	.	.	16cc-X/K	.	.
.	8F/	.	8b-J 8d/	.	.
*v	*v	*	*	*	*
=124	=124	=124	=124	=124
*Xped	*	*	*	*
4.b->:: 4.f>::\	.	8fff:: 8dd::/	.	p
.	.	8rgg	.	.
.	.	8rgg	.	.
=125	=125	=125	=125	=125
*ped	*	*	*	*
4.CCn/	.	4.r	.	.
=126	=126	=126	=126	=126
4.ee>:: 4.dd>:: 4.b->:: 4.g>:: 4.e>:: 4.d>::\	.	8ggg:: 8gg:: /	1 1	sf
*Xped	*	*	*	*
.	.	8rgg	.	.
.	.	8rgg	.	.
!!LO:LB:g=original
=127	=127	=127	=127	=127
*ped	*	*	*	*
4.FF^>/	.	4.r	.	.
=128	=128	=128	=128	=128
*	*^	*	*	*
4.d [4.F\	1	5	16f/LL	.	.
.	.	.	16g/	.	.
.	.	.	16a/	.	.
.	.	.	16b-/	4	.
.	.	.	16cc/	1	.
.	.	.	16dd/JJ	3	.
*	*v	*v	*	*	*
=129	=129	=129	=129	=129
*	*Xbelow	*	*	*
4.c 4.F\]	3	8ffL 8b-\	2 5	.
*Xped	*	*	*	*
.	.	16r	.	.
.	.	16ee-X\K	.	.
.	.	8g\J	.	.
=130	=130	=130	=130	=130
*	*^	*	*	*
4.a 4.e-\	1	2	16cc\LL	.	.
.	.	.	16dd\	.	.
.	.	.	16ee-\	.	.
.	.	.	16ff\	.	.
.	.	.	16gg\	.	.
.	.	.	16aa\JJ	.	.
*	*v	*v	*	*	*
=131	=131	=131	=131	=131
*^	*	*	*	*
*ped	*	*	*	*	*
4en^/	4.B-\	.	8cccnL 8cc#X\	.	.
.	.	.	16r	.	.
.	.	.	16bb-\K	.	.
8f/	.	.	8ffJ 8dd\	.	.
*clefG2	*	*	*	*	*
*v	*v	*	*	*	*
=132	=132	=132	=132	=132
*	*^	*	*	*
4.dd [4.f/	1	5	16ff\LL	.	.
.	.	.	16gg\	.	.
.	.	.	16aa\	.	.
.	.	.	16bb-\	.	.
.	.	.	16ccc\	1	.
.	.	.	16ddd\JJ	3	.
*	*v	*v	*	*	*
=133	=133	=133	=133	=133
4.cc 4.f/]	.	8fffL 8bb-\	2 5	.
*Xped	*	*	*	*
.	.	16r	.	.
.	.	16eee-X\K	.	.
.	.	8gg\J	.	.
=134	=134	=134	=134	=134
*	*	*8va	*	*
4.aa 4.ee-\	.	16ccc\LL	.	.
.	.	16ddd\	.	.
.	.	16eee-\	.	.
.	.	16fff\	.	.
.	.	16ggg\	.	.
.	.	16aaa\JJ	.	.
=135	=135	=135	=135	=135
*^	*	*	*	*
*ped	*	*	*	*	*
4een^/	4.b-\	.	8ccccnL 8ccc#X\	.	.
.	.	.	16r	.	.
.	.	.	16bbb-\K	.	.
8ff/	.	.	8fffJ 8ddd\	.	.
*v	*v	*	*	*	*
!!LO:LB:g=original
=136	=136	=136	=136	=136
*Xped	*	*	*	*
4aa 4ee-X\	.	16cccn\LL	.	.
.	.	16ddd\	.	.
.	.	16eee-\	.	.
.	.	16fff\	.	.
8f/	.	16ggg\	.	.
.	.	16aaa\JJ	.	.
=137	=137	=137	=137	=137
*^	*	*	*	*
*ped	*	*	*	*	*
4een^/	4.b-\	.	8ccccnL 8ccc#X\	.	.
.	.	.	16r	.	.
.	.	.	16bbb-\K	.	.
8ff/	.	.	8fffJ 8ddd\	.	.
*v	*v	*	*	*	*
=138	=138	=138	=138	=138
*Xped	*	*	*	*
4aa 4ee-X\	.	16cccn\LL	.	.
.	.	16ddd\	.	.
.	.	16eee-\	.	.
.	.	16fff\	.	.
8f/	.	16ggg\	.	.
.	.	16aaa\JJ	.	.
=139	=139	=139	=139	=139
*^	*	*	*	*
*ped	*	*	*	*	*
4een^/	4.b-\	.	8ccccnL 8ccc#X\	.	.
.	.	.	16r	.	.
.	.	.	16bbb-\K	.	.
8ff/	.	.	8fffJ 8ddd\	.	.
*v	*v	*	*	*	*
=140	=140	=140	=140	=140
4.r	.	16gggg^\LL	5	.
.	.	16ffff\	4	.
.	.	16dddd\	3	.
.	.	16bbb-\	2	.
*	*	*X8va	*	*
.	.	16ggg\	1	.
.	.	16fff\JJ	4	.
=141	=141	=141	=141	=141
4.r	.	16ddd\LL	.	.
.	.	16bb-\	.	.
.	.	16gg\	1	.
.	.	16ff\	4	.
.	.	16dd\	.	.
.	.	16b-\JJ	.	.
=142	=142	=142	=142	=142
4.r	.	16g\LL	1	.
.	.	16f\	4	.
.	.	16d\	.	.
*	*	*clefF4	*	*
.	.	16B-\	.	.
.	.	16G\	1	.
*Xped	*	*	*	*
.	.	16F\JJ	4	.
=143	=143	=143	=143	=143
*clefF4	*below	*	*	*
!	!	!LO:TX:t=P:problem=mixed beam	!	!
4.ryy	.	16D\LL	.	.
.	.	16BB-\	.	.
.	.	16GG\	1	.
.	1	16FF</	.	.
.	2	16DD</	.	.
.	3	16BBB-</JJ	.	.
!!LO:LB:g=original
=144	=144	=144	=144	=144
*ped	*	*	*	*
8FFF^/L	5	8r	.	.
8BBB-/	3	16FF/LL	.	.
*	*	*	*below	*
.	.	16D/	4	.
8DD/J	2	16BB-/	2	.
.	.	16F/JJ	5	.
=145	=145	=145	=145	=145
*	*	*	*Xbelow	*
8FF/L	1	16D\LL	1	.
.	.	16B-\	2	.
8BB-/	4	16F\	1	.
.	.	16d\	4	.
8D/J	2	16B-\	2	.
.	.	16f\JJ	5	.
*	*	*clefG2	*	*
=146	=146	=146	=146	=146
*	*Xbelow	*	*	*
8F\L	1	16d\LL	1	.
.	.	16b-\	2	.
8B-\	4	16f\	1	.
.	.	16dd\	.	.
8d\J	.	16b-\	.	.
.	.	16ff\JJ	.	.
*clefG2	*	*	*	*
=147	=147	=147	=147	=147
*	*below	*	*	*
8f/L	1	16dd\LL	1	.
.	.	16bb-\	2	.
8b-/	4	16ff\	1	.
.	.	16ddd\	.	.
8dd/J	.	16bb-\	.	.
.	.	16fff\JJ	.	.
=148	=148	=148	=148	=148
*	*	*8va	*	*
8ff\L	.	16ddd\LL	.	.
.	.	16bbb-\	.	.
8bb-\	.	16fff\	.	.
.	.	16dddd\	.	.
8ddd\J	.	16bbb-\	.	.
.	.	16ffff\JJ	.	.
=149	=149	=149	=149	=149
4.fff\	1	8dddd\	4	.
*	*	*X8va	*	*
.	.	8r	.	.
.	.	8r	.	.
*clefF4	*	*	*	*
=150	=150	=150	=150	=150
4.F#X 4.D 4.BB- 4.FF#X/	.	4.b- 4.d 4.B-/	.	.
*Xped	*	*	*	*
=151	=151	=151	=151	=151
*ped	*	*	*	*
[4.CC [4.GGG [4.CCC/	.	4.gg 4.een 4.b- 4.g^\	.	.
=152	=152	=152	=152	=152
4.CC] 4.GGG] 4.CCC/]	.	4.r	.	.
!!LO:LB:g=original
=153	=153	=153	=153	=153
*^	*	*	*	*
*	*	*Xbelow	*	*	*
!LO:TX:t=P:problem=mixed beam	!	!	!	!	!
8G#X^:L/	[4.C: [4.FFn:\	1	[4.f [4.e-X/	.	.
*	*	*	*	*below	*
8B->^\	.	.	.	2	.
*Xped	*	*	*	*	*
N[8A>^\J	.	.	.	1	.
*v	*v	*	*	*	*
=154	=154	=154	=154	=154
4.C] 4.FF/]	.	4.f] 4.e-] 4.A/N]	.	.
=155	=155	=155	=155	=155
*ped	*	*8va	*	*
[4BBB- [4BBBB-/	.	8ffff 8fff\	.	ff
*	*	*X8va	*	*
.	.	8r	.	.
16BBB-]LL 16BBBB-/]	.	16r	.	.
16dJJ 16B- 16F 16D/	.	16bb- 16ff 16dd 16b-\	.	.
=156	=156	=156	=156	=156
[4.d [4.B- [4.F [4.D\	.	[4.bb- [4.ff [4.dd [4.b-^\	.	sf
=157	=157	=157	=157	=157
8d]L 8B-] 8F] 8D\]	.	8bb-]L 8ff] 8dd] 8b-\]	.	.
*	*	*	*Xbelow	*
8B- 8BB-\	.	8b-;\	4	.
!	!	!LO:TX:b:i:t=stretto	!	!
8B-J 8BB-\	.	8b-\J	.	.
=158	=158	=158	=158	=158
8B-L 8BB-\	.	8b-\L	.	.
8B- 8BB-\	.	8b-\	.	.
8B-J 8BB-\	.	8b-\J	.	.
=159	=159	=159	=159	=159
8B- 8BB-\	.	8b-\	.	.
8r	.	8r	.	.
8r	.	8r	.	.
=160	=160	=160	=160	=160
!	!	!LO:TX:a:Bi:t=dim._:problem:dynamics with extension lines	!	!
!	!	!LO:TX:b:i:t=rit.:dur=9e:ext=ud:problem:text with extension lines	!	!LO:HP:a:t=dim.
4.BBB-\	.	[4.B-</	.	>
=161	=161	=161	=161	=161
*	*below	*	*	*
4.BB-\	1	4.B-</_	.	.
*Xped	*	*	*	*
=162	=162	=162	=162	=162
4.AA-X\	4	4.B-</]	.	]]
!!LO:PB:g=original
=163||	=163||	=163||	=163||	=163||
*k[b-e-a-d-g-c-]	*	*k[b-e-a-d-g-c-]	*	*
8B- 8GG-\	.	4.dd- 4.b- 4.d-/	.	p
8r	.	.	.	.
8r	.	.	.	.
=164	=164	=164	=164	=164
8c- 8AA-\	.	4.gg- 4.cc- [4.g-^\	.	.
8r	.	.	.	.
8r	.	.	.	.
=165	=165	=165	=165	=165
8d- 8BB-\	.	4.dd- 4.g-\]	3	.
8r	.	.	.	.
8r	.	.	.	.
=166	=166	=166	=166	=166
*	*	*	*below	*
8c-X 8AA-\	.	16cn/LL	1	.
.	.	16d-/	.	.
8r	.	16e-/	.	.
.	.	16en/	1	.
8r	.	16f/	.	.
.	.	16a-/JJ	.	.
=167	=167	=167	=167	=167
*	*	*	*Xbelow	*
8B- 8GG-\	.	4.dd- 4.g-\	2 5	.
8r	.	.	.	.
8r	.	.	.	.
=168	=168	=168	=168	=168
8c- 8AA-\	.	4.gg- 4.cc-X [4.g-^\	.	.
8r	.	.	.	.
8r	.	.	.	.
=169	=169	=169	=169	=169
8d- 8BB-\	.	4.dd- 4.g-\]	.	.
8r	.	.	.	.
8r	.	.	.	.
=170	=170	=170	=170	=170
8c-X 8AA-\	.	16cn/LL	.	.
.	.	16d-/	.	.
8r	.	16e-X/	.	.
.	.	16en/	.	.
8r	.	16f/	.	.
.	.	16a-/JJ	.	.
=171	=171	=171	=171	=171
8B- 8GG-\	.	4.dd- 4.g-\	.	.
8r	.	.	.	.
8r	.	.	.	.
!!LO:LB:g=original
=172	=172	=172	=172	=172
8c- 8AA-\	.	[4.gg- 4.cc-X [4.g-\	.	.
8r	.	.	.	.
8r	.	.	.	.
=173	=173	=173	=173	=173
8d- 8BB-\	.	4.gg-] 4.dd- 4.g-\]	.	.
8r	.	.	.	.
8r	.	.	.	.
=174	=174	=174	=174	=174
*	*	*^	*	*
8e-- 8C-\	.	[4gg-/	4.ee-- [4.g-\	.	.
8r	.	.	.	.	.
8r	.	16gg-/LL]	.	.	.
.	.	16gg-/JJ	.	.	.
*	*	*v	*v	*	*
=175	=175	=175	=175	=175
*ped	*	*	*	*
!LO:N:n=1:acc=n-	!	!	!	!
8e-X 8Cn\	.	[4.a- 4.g-^>/]	2-5	.
8r	.	.	.	.
8r	.	.	.	.
=176	=176	=176	=176	=176
8AA-: 8AAA-:/	.	4.a-] 4.cn/	.	.
8r	.	.	.	.
*Xped	*	*	*	*
8r	.	.	.	.
=177	=177	=177	=177	=177
8D-: 8DD-:/	.	8f/L	3	.
8r	.	8d-/	.	.
8r	.	8d-/J	.	.
=178	=178	=178	=178	=178
8DD-: 8DDD-:/	.	8anL 8f 8d- 8c-X/	3 5	.
8r	.	8d-/	.	.
8r	.	8d-/J	.	.
=179	=179	=179	=179	=179
*ped	*	*	*	*
8GG-: 8GGG-:/	.	4.b- 4.g- 4.B-/	4 5	.
8r	.	.	.	.
8r	.	.	.	.
=180	=180	=180	=180	=180
*Xped	*	*	*	*
8c- 8AA-X\	.	4.gg- 4.cc- [4.g-^\	.	.
8r	.	.	.	.
8r	.	.	.	.
!!LO:LB:g=original
=181	=181	=181	=181	=181
8d- 8BB-\	.	4.dd- 4.g-\]	.	.
8r	.	.	.	.
8r	.	.	.	.
=182	=182	=182	=182	=182
*	*	*	*below	*
8c-X 8AA-\	.	16cn/LL	1	.
.	.	16d-/	.	.
8r	.	16e-/	.	.
.	.	16en/	1	.
8r	.	16f/	.	.
.	.	16a-/JJ	.	.
=183	=183	=183	=183	=183
*ped	*	*	*	*
8B- 8GG-\	.	4.dd- 4.g-\	.	.
8r	.	.	.	.
*Xped	*	*	*	*
8r	.	.	.	.
=184	=184	=184	=184	=184
*	*	*M2/8	*	*
*	*	*^	*	*
8c- 8AA-\	.	8ffL 8f/	4cc-X\	.	.
!LO:N:vis=8	!	!	!	!	!
16r	.	8gg-J 8g-/	.	.	.
*Xped	*	*	*	*	*
!LO:N:vis=8	!	!	!	!	!
16r	.	.	.	.	.
*	*	*v	*v	*	*
=185	=185	=185	=185	=185
*	*	*M3/8	*	*
8d- 8BB-\	.	4.ddd- 4.dd-^\	.	.
8r	.	.	.	.
8r	.	.	.	.
=186	=186	=186	=186	=186
8c-X 8AA-\	.	16cn/LL	.	.
.	.	16d-/	.	.
8r	.	16e-X/	.	.
.	.	16en/	.	.
8r	.	16f/	.	.
.	.	16a-/JJ	.	.
=187	=187	=187	=187	=187
*ped	*	*	*	*
8B- 8GG-\	.	4.dd- 4.g-\	.	.
8r	.	.	.	.
8r	.	.	.	.
=188	=188	=188	=188	=188
*	*	*	*Xbelow	*
8c- 8AA-\	.	[4.ff-X 4.cc-X [4.f-X\	3 5	.
8r	.	.	.	.
*Xped	*	*	*	*
8r	.	.	.	.
=189	=189	=189	=189	=189
8d- 8BB-\	.	4.ff-X] 4.dd- 4.f-X\]	.	.
8r	.	.	.	.
8r	.	.	.	.
!!LO:LB:g=original
=190	=190	=190	=190	=190
*	*	*^	*	*
8c- 8AA-\	.	[4ff-X/	4.cc- 4.f-X\	.	.
8r	.	.	.	.	.
8r	.	16ff-/LL]	.	.	.
.	.	16ff-/JJ	.	.	.
*	*	*v	*v	*	*
=191	=191	=191	=191	=191
8B- 8GG-\	.	4.b- [4.f-X^/	2	.
8r	.	.	.	.
8r	.	.	.	.
=192	=192	=192	=192	=192
8c- 8AA-\	.	4.cc- 4.f-/_	3	.
8r	.	.	.	.
8r	.	.	.	.
=193	=193	=193	=193	=193
*	*	*^	*	*
8cn 8AAn\	.	4.ccn/	8f-X\L]	4	.
8r	.	.	8f-\	.	.
8r	.	.	8f-\J	.	.
=194	=194	=194	=194	=194	=194
8d- 8BB-\	.	4.dd-/	8f-X\L	5	.
8r	.	.	8f-\	.	.
8r	.	.	8f-\J	.	.
*	*	*v	*v	*	*
=195||	=195||	=195||	=195||	=195||
*k[f#c#]	*	*k[f#c#]	*	*
*ped	*	*	*	*
8FFF#/	.	4.r	.	.
8r	.	.	.	.
8r	.	.	.	.
=196	=196	=196	=196	=196
8d#X: 8BB#X:\	.	[4.gg (4.dd#X [4.g\	3 5	.
8r	.	.	.	.
8r	.	.	.	.
=197	=197	=197	=197	=197
8e: 8C#:\	.	4.gg] 4.ee) 4.g\]	.	.
8r	.	.	.	.
8r	.	.	.	.
=198	=198	=198	=198	=198
*	*	*^	*	*
8d#X: 8BBn:\	.	[4gg/	4.dd#X 4.g\	.	.
*Xped	*	*	*	*	*
8r	.	.	.	.	.
8r	.	16gg/LL]	.	.	.
.	.	16gg/JJ	.	.	.
*	*	*v	*v	*	*
!!LO:LB:g=original
=199	=199	=199	=199	=199
8c#: 8AA#X:\	.	4.cc# [4.g^/	2	.
8r	.	.	.	.
8r	.	.	.	.
=200	=200	=200	=200	=200
8dn: 8BB:\	.	4.ddn 4.g/_	3	.
8r	.	.	.	.
8r	.	.	.	.
=201	=201	=201	=201	=201
*	*	*^	*	*
8d#X: 8BB#X:\	.	4.dd#X/	8g\L]	4	.
8r	.	.	8g\	.	.
8r	.	.	8g\J	.	.
*	*	*v	*v	*	*
=202	=202	=202	=202	=202
8e: 8C#:\	.	16eeLL 16g\	5	.
.	.	16an\	2	.
8r	.	16a#X\	3	.
.	.	16cc#\	4	.
8r	.	16ee\	1	.
.	.	16gg\JJ	.	.
=203	=203	=203	=203	=203
*ped	*	*	*	*
8FFF#/	.	8aa#X\	.	.
8r	.	8r	.	.
8r	.	8r	.	.
=204	=204	=204	=204	=204
8f# 8D#X\	.	[4.aa#X 4.ff# [4.a#X\	3 5	.
8r	.	.	.	.
8r	.	.	.	.
=205	=205	=205	=205	=205
8g 8E\	.	4.aa#X] 4.gg 4.a#X\]	.	.
*Xped	*	*	*	*
8r	.	.	.	.
8r	.	.	.	.
=206	=206	=206	=206	=206
8e 8C#\	.	16eeLL 16g\	1 5	.
.	.	16an\J	.	.
8r	.	16a#X\L	.	.
.	.	16cc#\J	.	.
*	*	*Xtuplet	*	*
8r	.	24ee\L	1	.
.	.	24gg\	.	.
.	.	24aa#X\JJ	.	.
=207	=207	=207	=207	=207
*ped	*	*	*	*
8FFF#/	.	8ccc#\	.	.
8r	.	8r	.	.
8r	.	8r	.	.
!!LO:PB:g=original
=208	=208	=208	=208	=208
8an 8F#\	.	[4.aa#X 4.aa [4.a#X\	1 4 5	.
*Xped	*	*	*	*
8r	.	.	.	.
8r	.	.	.	.
=209	=209	=209	=209	=209
8g 8E\	.	4.aa#X] 4.gg 4.a#\]	.	.
8r	.	.	.	.
8r	.	.	.	.
=210	=210	=210	=210	=210
8e 8C#\	.	16eeLL 16g\	1 5	.
.	.	16an\J	.	.
8r	.	24a#X\L	.	.
.	.	24cc#\	.	.
.	.	24ee\J	1	.
8r	.	24gg\L	.	.
.	.	24aa#X\	.	.
.	.	24ccc#\JJ	.	.
=211	=211	=211	=211	=211
*ped	*	*	*	*
8FFF#/	.	8eee\	.	.
8r	.	8r	.	.
8r	.	8r	.	.
=212	=212	=212	=212	=212
8g##X 8F#\	.	[4.ccc# 4.gg##X [4.cc#\	3 5	.
8r	.	.	.	.
8r	.	.	.	.
=213	=213	=213	=213	=213
8a#X 8Gn\	.	4.ccc#] 4.aa#X 4.cc#\]	4	.
8r	.	.	.	.
8r	.	.	.	.
=214	=214	=214	=214	=214
8g##X 8F#\	.	[4.ccc# 4.gg##X [4.cc#\	3 5	.
*Xped	*	*	*	*
8r	.	.	.	.
8r	.	.	.	.
=215	=215	=215	=215	=215
8a#X 8Gn\	.	4.ccc#_ 4.aa#X 4.cc#\_	3	.
8r	.	.	.	.
8r	.	.	.	.
*clefG2	*	*	*	*
=216	=216	=216	=216	=216
8b 8G#X/	.	4.ccc#] 4.bb 4.cc#\]	3	.
8r	.	.	.	.
8r	.	.	.	.
!!LO:LB:g=original
=217	=217	=217	=217	=217
*	*	*^	*	*
!	!	!LO:TX:b:i:t=rit.:dur=6e:ext=ud:problem:text with extension lines	!	!	!
8b#X 8G##X/	.	4.bb#X/	8r	4	.
8r	.	.	8ee\L	.	.
8r	.	.	8ee\J	.	.
=218	=218	=218	=218	=218	=218
8cc# 8A#X/	.	4.ccc#/	8ee\L	5	.
8r	.	.	8ee\	.	.
8r	.	.	8ee\J	.	.
*	*	*v	*v	*	*
*clefF4	*	*	*	*
=219||	=219||	=219||	=219||	=219||
!!!OMD: Tempo I.
*k[b-e-]	*	*k[b-e-]	*	*
.	.	16qqff/LL	.	.
.	.	16qqddd/JJ	.	.
*ped	*	*	*	*
8BBB-\L	.	8fff\	.	.
8d 8F\	.	8r	.	.
8fJ 8B-\	.	8r	.	.
=220	=220	=220	=220	=220
*	*	*8va	*	*
.	.	16qqgg/LL	.	.
.	.	16qqbb-/	.	.
.	.	16qqeee-/JJ	.	.
8r	.	8bbb-\	.	.
*Xped	*	*X8va	*	*
8e-L 8G\	.	8r	.	.
8gJ 8B-\	.	8rg	.	.
=221	=221	=221	=221	=221
.	.	16qqff/LL	.	.
.	.	16qqddd/JJ	.	.
*ped	*	*	*	*
8BB-\L	.	8fff\	.	.
8d 8F\	.	8r	.	.
8fJ 8B-\	.	8r	.	.
=222	=222	=222	=222	=222
*^	*	*	*	*
8D/L	4.D\	.	16f/LL	.	.
.	.	.	16g/	.	.
*Xped	*	*	*	*	*
8F/	.	.	16a/	.	.
.	.	.	16b-/	.	.
*	*	*	*	*below	*
8B-/J	.	.	16cc/	1	.
.	.	.	16dd/JJ	3	.
*v	*v	*	*	*	*
=223	=223	=223	=223	=223
*ped	*	*	*Xbelow	*
!	!	!LO:TX:t=P:problem=mixed beam	!	!
8C\L	.	8ee-L 8b-\	2 4	.
8F\	.	16r	.	.
.	.	16a'\K	.	.
8e-^\J	.	8e-</J	.	.
=224	=224	=224	=224	=224
8FF/L	.	16cc\LL	.	.
.	.	16dd\	.	.
*Xped	*	*	*	*
8E-/	.	16ee-\	.	.
.	.	16ff\	1	.
8A/J	.	16gg\	4	.
.	.	16aa\JJ	5	.
!!LO:LB:g=original
=225	=225	=225	=225	=225
*^	*	*	*	*
*ped	*	*	*	*	*
8BB-/L	4.BB-\	.	8ggL 8cc#X\	2 4	.
8En/	.	.	16r	.	.
.	.	.	16gg-X\K	4	.
8B-J 8F/	.	.	8ffJ 8dd\	1 3	.
*v	*v	*	*	*	*
=226	=226	=226	=226	=226
!	!	!LO:TX:t=P:problem=mixed beam	!	!
4.ryy	2	16A</LL	.	.
*Xped	*	*	*	*
.	1	16B-</	.	.
.	.	16d\	1	.
.	.	16f\	.	.
.	.	16b-\	.	.
.	.	16dd\JJ	1	.
=227	=227	=227	=227	=227
*ped	*	*	*	*
8r	.	8fff\	.	.
*clefG2	*	*	*	*
8a-XL 8d/	.	8r	.	.
[8B-/J	.	8r	.	.
=228	=228	=228	=228	=228
.	.	8qee-/	.	.
8B-/L]	.	8ggg\	.	.
8a-X 8c/	.	8r	.	.
[8B-/J	.	8r	.	.
=229	=229	=229	=229	=229
*	*	*8va	*	*
.	.	8qgg/	.	.
8B-/L]	.	8bbb-\	.	.
*Xped	*	*X8va	*	*
8a-X 8e-/	.	8r	.	.
[8B-/J	.	8r	.	.
=230	=230	=230	=230	=230
.	.	8qee-/	.	.
8B-/L]	.	8ggg\	.	.
8a-X 8c/	.	8r	.	.
8B-/J	.	8r	.	.
*clefF4	*	*	*	*
=231	=231	=231	=231	=231
*M2/8	*	*M2/8	*	*
*ped	*	*	*	*
8BB-\L	.	8r	.	.
.	.	8qdd/	.	.
8f:J 8d: [>8B-: [8A-X:\	.	8fff\	.	.
=232	=232	=232	=232	=232
.	.	8qee-/	.	.
8gL 8e- 8B-] 8A-X\]	.	8ggg\L	.	.
*clefG2	*	*	*	*
*	*	*8va	*	*
.	.	8qgg/	.	.
8b-J 8g\	.	8bbb-\J	.	.
*	*	*X8va	*	*
*clefF4	*	*	*	*
=233	=233	=233	=233	=233
.	.	8qee-/	.	.
8gL 8e-\	.	8ggg\L	.	.
.	.	8qdd/	.	.
*Xped	*	*	*	*
8f:J 8d: [>8B-: [8A-X:\	.	8fff\J	.	.
!!LO:LB:g=original
=234	=234	=234	=234	=234
.	.	8qcc/	.	.
*	*Xbelow	*	*	*
8e-L 8c 8B-] 8A-X\]	3 2	8eee-\L	.	.
.	.	8qdd/	.	.
8fJ 8d 8B- 8A-\	.	8fff\J	.	.
=235	=235	=235	=235	=235
*ped	*	*	*	*
8EE-\L	.	8r	.	.
.	.	8qee-/	.	.
8gJ 8e- 8B- 8G\	.	8ggg\	.	.
*clefG2	*	*	*	*
=236	=236	=236	=236	=236
*	*	*8va	*	*
.	.	8qbb-/	.	.
4dd 4b-^\	.	[4dddd^\	.	.
*clefF4	*	*	*	*
=237	=237	=237	=237	=237
8CCn/L	.	8dddd\L]	.	.
*clefG2	*	*	*	*
.	.	8qaan/	.	.
8cc:J 8an: 8g: [8e-:/	.	8cccc\J	.	.
=238	=238	=238	=238	=238
.	.	8qgg/	.	.
8b-L 8g 8e-\]	3 2	8bbb-\L	.	.
*clefF4	*	*	*	*
*Xped	*	*X8va	*	*
.	.	8qdd/	.	.
8f#XJ 8d\	.	8fff#X\J	.	.
=239	=239	=239	=239	=239
.	.	8qffn/	.	.
8aL 8fn\	.	8fff\L	.	.
.	.	8qee-/	.	.
8gJ 8e-\	.	8eee-\J	.	.
=240	=240	=240	=240	=240
.	.	8qbn/	.	.
8dL 8Bn\	.	8ddd\L	.	.
.	.	8qdd/	.	.
8fJ 8d\	.	8fff\J	.	.
=241	=241	=241	=241	=241
!	!	!LO:TX:a:i:t=rit.:dur=2q:ext=ud:problem:text with extension lines	!	!
.	.	8qcc/	.	.
8e-L 8c\	.	8eee-\L	.	.
.	.	8qf#X/	.	.
8AJ 8F#X\	.	8aa\J	.	.
=242	=242	=242	=242	=242
.	.	8qa/	.	.
8.cL 8.A\	.	8.ccc\L	.	.
.	.	8qg/	.	.
16B-XJk 16G\	.	16bb-X\Jk	.	.
!!LO:LB:g=original
=243	=243	=243	=243	=243
*ped	*	*	*	*
!	!	!LO:TX:b:i:t=rit.	!	!
4C/	.	4r	.	.
=244	=244	=244	=244	=244
4g>:: 4en>:: 4d>:: 4B-:: 4G::\	.	(>8ddd::L 8b-::/	.	.
*Xped	*	*	*	*
.	.	8een/J)	.	.
=245	=245	=245	=245	=245
*ped	*	*	*	*
[4FFn^>/	.	4r	.	.
=246	=246	=246	=246	=246
*M3/8	*	*M3/8	*	*
4.D 4.FF\_	.	16F</LL	1	.
.	.	16G</	.	.
.	.	16A</	.	.
.	.	16B-</	4	.
*Xped	*	*	*	*
.	.	16c/	1	.
.	.	16d/JJ	3	.
=247	=247	=247	=247	=247
4.C 4.FF\]	3	8fL 8B-</	.	.
.	.	16r	.	.
.	.	16e-X/K	.	.
.	.	8G</J	.	.
=248	=248	=248	=248	=248
*	*below	*	*	*
4.A 4.E-\	1 2	16c/LL	.	.
.	.	16d/	.	.
.	.	16e-/	.	.
.	.	16f/	.	.
.	.	16g/	.	.
.	.	16a/JJ	.	.
=249	=249	=249	=249	=249
*^	*	*	*	*
*ped	*	*	*	*	*
4En/	4.BB-\	.	8ccnL 8c#X/	.	.
.	.	.	16r	.	.
.	.	.	16cc-X/K	.	.
8F/	.	.	8b-J 8d/	.	.
*v	*v	*	*	*	*
*clefG2	*	*	*	*
=250	=250	=250	=250	=250
*	*	*8va	*	*
4.dd:: 4.b-:: 4.f#X::/	.	8bbb-:: 8ff#X::\	.	p
*Xped	*	*X8va	*	*
.	.	8r	.	.
.	.	8r	.	.
*clefF4	*	*	*	*
=251	=251	=251	=251	=251
*ped	*	*	*	*
!	!	!LO:TX:b:i:t=rit.:dur=5e:ext=ud:problem:text with extension lines	!	!
4.CC/	.	4.r	.	.
*clefG2	*	*	*	*
!!LO:PB:g=original
=252	=252	=252	=252	=252
*M2/8	*	*M2/8	*	*
*	*Xbelow	*8va	*	*
4een: 4dd: 4b-: 4g: 4en: 4d:/	1-1	16bb-\LL	.	.
.	.	16dddd\J	.	.
.	.	8eeen\J	.	.
*Xped	*	*X8va	*	*
*clefF4	*	*	*	*
=253	=253	=253	=253	=253
*ped	*	*	*	*
4FF^>/	.	4r	.	.
=254	=254	=254	=254	=254
*M3/8	*	*M3/8	*	*
*	*^	*	*	*
4.d [4.F\	1	5	16f/LL	.	.
.	.	.	16g/	.	.
.	.	.	16a/	.	.
.	.	.	16b-/	.	.
.	.	.	16cc/	.	.
.	.	.	16dd/JJ	.	.
*	*v	*v	*	*	*
=255	=255	=255	=255	=255
4.c 4.F\]	3	8ffL 8b-\	.	.
*Xped	*	*	*	*
.	.	16r	.	.
.	.	16ee-X\K	.	.
.	.	8g\J	.	.
=256	=256	=256	=256	=256
*	*^	*	*	*
4.a 4.e-\	1	2	16cc\LL	.	.
.	.	.	16dd\	.	.
.	.	.	16ee-\	.	.
.	.	.	16ff\	.	.
.	.	.	16gg\	.	.
.	.	.	16aa\JJ	.	.
*	*v	*v	*	*	*
=257	=257	=257	=257	=257
*^	*	*	*	*
*ped	*	*	*	*	*
4en^/	4.B-\	.	8cccnL 8cc#X\	.	.
.	.	.	16r	.	.
.	.	.	16bb-\K	.	.
8f/	.	.	8ffJ 8dd\	.	.
*v	*v	*	*	*	*
*clefG2	*	*	*	*
=258	=258	=258	=258	=258
(>4.dd [4.f/	.	16ff\LL	.	.
.	.	16gg\	.	.
.	.	16aa\	.	.
.	.	16bb-\	.	.
.	.	16ccc\	.	.
*Xped	*	*	*	*
.	.	16ddd\JJ	.	.
=259	=259	=259	=259	=259
4.cc 4.f/])	.	8fffL 8bb-\	.	.
.	.	16r	.	.
.	.	16eee-X\K	.	.
.	.	8gg\J	.	.
!!LO:LB:g=original
=260	=260	=260	=260	=260
*	*	*8va	*	*
4.aa 4.ee-\	.	16ccc\LL	.	.
.	.	16ddd\	.	.
.	.	16eee-\	.	.
.	.	16fff\	.	.
.	.	16ggg\	.	.
.	.	16aaa\JJ	.	.
=261	=261	=261	=261	=261
*^	*	*	*	*
*ped	*	*	*	*	*
4een^/	4.b-\	.	8ccccnL 8ccc#X\	.	.
.	.	.	16r	.	.
.	.	.	16bbb-\K	.	.
8ff/	.	.	8fffJ 8ddd\	.	.
*v	*v	*	*	*	*
=262	=262	=262	=262	=262
4.r	.	16gggg^\LL	5	.
.	.	16ffff\	.	.
.	.	16dddd\	.	.
.	.	16bbb-\	.	.
*	*	*X8va	*	*
.	.	16ggg\	1	.
.	.	16fff\JJ	4	.
=263	=263	=263	=263	=263
4.r	.	16ddd\LL	.	.
.	.	16bb-\	.	.
*Xped	*	*	*	*
.	.	16gg\	.	.
.	.	16ff\	.	.
.	.	16dd\	.	.
.	.	16b-\JJ	.	.
=264	=264	=264	=264	=264
4.r	.	16g\LL	.	.
.	.	16f\	.	.
.	.	16d\	.	.
*	*	*clefF4	*	*
.	.	16B-\	.	.
.	.	16G\	.	.
.	.	16F\JJ	.	.
=265	=265	=265	=265	=265
*clefF4	*	*	*	*
!	!	!LO:TX:t=P:problem=mixed beam	!	!
4.ryy	.	16D\LL	.	.
.	.	16BB-\	.	.
.	.	16GG\	.	.
.	.	16FF</	.	.
.	.	16DD</	.	.
.	.	16BBB-</JJ	.	.
=266	=266	=266	=266	=266
*ped	*	*	*	*
8FFF^/L	.	8r	.	.
8BBB-/	.	16FF/LL	.	.
.	.	16D/	.	.
8DD/J	.	16BB-/	.	.
.	.	16F/JJ	.	.
!!LO:LB:g=original
=267	=267	=267	=267	=267
8FF/L	.	16D\LL	.	.
.	.	16B-\	.	.
8BB-/	.	16F\	.	.
.	.	16d\	.	.
8D/J	.	16B-\	.	.
.	.	16f\JJ	.	.
*	*	*clefG2	*	*
=268	=268	=268	=268	=268
8F\L	.	16d\LL	.	.
.	.	16b-\	.	.
8B-\	.	16f\	.	.
.	.	16dd\	.	.
8d\J	.	16b-\	.	.
.	.	16ff\JJ	.	.
*clefG2	*	*	*	*
=269	=269	=269	=269	=269
8f/L	.	16dd\LL	.	.
.	.	16bb-\	.	.
8b-/	.	16ff\	.	.
.	.	16ddd\	.	.
8dd/J	.	16bb-\	.	.
.	.	16fff\JJ	.	.
=270	=270	=270	=270	=270
*	*	*8va	*	*
8ff\L	.	16ddd\LL	.	.
.	.	16bbb-\	.	.
8bb-\	.	16fff\	.	.
.	.	16dddd\	.	.
8ddd\J	.	16bbb-\	.	.
.	.	16ffff\JJ	.	.
=271	=271	=271	=271	=271
4.fff\	.	8dddd\	.	.
*	*	*X8va	*	*
.	.	8r	.	.
.	.	8r	.	.
*clefF4	*	*	*	*
=272	=272	=272	=272	=272
*Xped	*	*	*	*
4.F#X 4.D 4.BB- 4.FF#X/	.	4.b- 4.d 4.B-/	.	.
=273	=273	=273	=273	=273
*ped	*	*	*	*
[4.CC [4.CCC/	.	8ff#XL 8een 8b- 8f#X\	.	.
.	.	8aa 8a\	.	.
.	.	[8ggJ [8g\	.	.
=274	=274	=274	=274	=274
4.CC] 4.CCC/]	.	4.gg] 4.g\]	.	.
!!LO:LB:g=original
=275	=275	=275	=275	=275
*^	*	*	*	*
!LO:TX:t=P:problem=mixed beam	!	!	!	!	!
8G#X/L	[4.C [4.FF\	1	[4.fn [4.e-X/	4 5	.
*Xped	*	*	*	*	*
N[8A>\	.	1	.	.	.
[8F/J	.	1	.	.	.
*v	*v	*	*	*	*
=276	=276	=276	=276	=276
4.F] 4.C] 4.FF/]	.	4.f] 4.e-] 4.AN]/	.	.
=277	=277	=277	=277	=277
*ped	*	*8va	*	*
[4CC-X [4CCC-X/	.	8dddd-X 8ddd-X'\	.	ff
*	*	*X8va	*	*
.	.	8r	.	.
16CC-]LL 16CCC-/]	.	16r	.	.
16c-X:JJ 16A-X: 16F: 16D-X: 16C-X:/	.	16ddd- 16aa-X 16ff 16dd-\	.	.
=278	=278	=278	=278	=278
[4.c-X [4.A-X [4.F [>4.D-X [4.C-X\	.	[4.ddd-X [4.aa-X [4.ff [4.dd-X\	.	sf
=279	=279	=279	=279	=279
8c-X]L 8A-X] 8F] 8D-X] 8C-X\]	.	8ddd-X]L 8aa-X] 8ff] 8dd-X/]	.	.
8a-X> 8f> 8d-X> 8c-X>\	.	8ddd- 8aa- 8ff 8dd-;/	.	.
!	!	!LO:TX:b:i:t=stretto	!	!
8a->J 8f> 8d-> 8c->\	.	8ddd-J 8aa- 8ff 8dd-/	.	.
=280	=280	=280	=280	=280
8a-X>L 8f> 8d-X> 8c-X>\	.	8ddd-XL 8aa-X 8ff 8dd-X/	.	.
8a-> 8f> 8d-> 8c->\	.	8ddd- 8aa- 8ff 8dd-/	.	.
8a->J 8f> 8d-> 8c->\	.	8ddd-J 8aa- 8ff 8dd-/	.	.
=281	=281	=281	=281	=281
4a-X> 4f> 4d-X> 4c-X>\	.	4ddd-X 4aa-X 4ff 4dd-X/	.	.
8b-> 8g-X> 8d-> 8c->\	.	8ddd- 8bb- 8gg-X 8dd-/	.	.
=282	=282	=282	=282	=282
4b-> 4g-X> 4d-X> 4c-X>\	.	4ddd-X 4bb- 4gg-X 4dd-X/	.	.
8a-X> 8f> 8d-> 8c->\	.	8ddd- 8aa-X 8ff 8dd-/	.	.
=283	=283	=283	=283	=283
4a-X> 4f> 4d-X> 4c-X>\	.	4ddd-X 4aa-X 4ff 4dd-X/	.	.
8g-X> 8e-> 8d-> 8c->\	5 4 3 2	8ddd- 8gg-X 8ee- 8dd-/	.	.
!!LO:LB:g=original
=284	=284	=284	=284	=284
4g-X> 4e-> 4d-X> 4c-X>\	.	4ddd-X 4gg-X 4ee- 4dd-X/	.	.
8a> 8f> 8d-> 8c->\	5 4 2 1	8ddd- 8aa-X 8ff 8dd-/	.	.
=285	=285	=285	=285	=285
4a-X> 4f> 4d-X> 4c-X>\	.	4ddd-X 4aa-X 4ff 4dd-X/	.	.
16r	.	8r	.	fff
*	*below	*	*	*
16FFF/	3	.	.	.
=286	=286	=286	=286	=286
8CC-X^/L	1	4.r	.	.
8FFF'/	3	.	.	.
8CC-'/J	1	.	.	.
=287	=287	=287	=287	=287
8FFF'/L	.	4.r	.	.
8CC-X'/	.	.	.	.
8FFF'/J	.	.	.	.
=288	=288	=288	=288	=288
8CC-X'/L	.	4.r	.	.
8FFF'/	.	.	.	.
8CC-'/J	.	.	.	.
=289	=289	=289	=289	=289
8FFF'/	3	4.r	.	.
8r	.	.	.	.
8r	.	.	.	.
=290	=290	=290	=290	=290
4.r	.	4.r	.	.
*Xped	*	*	*	*
=291	=291	=291	=291	=291
4.G-X 4.D-X 4.BB- 4.GG-X\	.	4b- 4g-X 4d-X 4B-</	.	.
.	.	8r	.	.
=292	=292	=292	=292	=292
4.E- 4.BB- 4.GG-X 4.EE-/	.	4gg-X 4cc 4b- 4g-X\	.	.
.	.	8r	.	.
=293	=293	=293	=293	=293
*ped	*	*	*	*
4.BBB- 4.FFF 4.DDDn 4.BBBB-/	.	4.bbb- 4.fff 4.dddn 4.bb-;\	.	.
==	==	==	==	==
*-	*-	*-	*-	*-
!!!system-decoration: {(*)}
!!!RDF**kern: > = above
!!!RDF**kern: < = below
!!!RDF**kern: N = linked
!!!ENC: Andrzej Gręziak
!!!END: 2022-07-20
!!!ENC: Andrzej Kubiczek
!!!END: 2022-08-22
!!!YEC: Copyright 2022 Narodowy Instytut Fryderyka Chopina (https://polishscores.org)
!!!YEM: License CC-BY-4.0 (https://creativecommons.org/licenses/by/4.0)
